X:1
T:The Rifleman's Song at Bennington
M:2/4
L:1/8
K:G
 D| GG AA| B B2G/2-A/2| BB AA| B2 z D/2D/2| GG AA| B B2 G/2A/2| BB AA|\
 G2 zG/2-F/2| EE E3/2 F/2| GG F3/2 E/2| ED DE| D2 G3/2- A/2| BB B3/2 c/2|\
 dd d3/2 c/2| BB AA| G2 G3/2 G/2| GE| G3/2 G/2| GD| G3/2 A/2| B2 G2|\
 A2 c2| B G3-| G3||

